X:1
T:Title
%%score { 1 | 2 }
L:1/8
Q:1/4=100
M:6/8
K:F
V:1 treble nm="Grand Piano"
V:2 bass 
V:1
 [CFA]3- [CFA][B,CG][A,CF] | [B,DF][K:bass] [F,B,D]2- [F,B,D]3 | %2
w: D.~B.~Purinton * * *||
 [A,C]3- [A,C][B,D][K:treble][A,CF] | [CEG]6 | [CFA]3- [CFA][B,EG][A,F] | [B,DF] D2- D3 | C3- CFG | %7
w: |||||
 F6 | c3 d2 c | c A2- A3 | [EG]3 F2 [EG] | A c2- c3 | f3 e2 d | c A2- A3 | [EG]3- [EG]FG | F6 |] %16
w: |||||||||
V:2
 F,3- F,F,F, | B,, B,,2- B,,3 | F,3- F,F,F, | C,6 | F,3- F,C,D, | B,, [B,,F,B,]2- [B,,F,B,]3 | %6
 [C,F,A,]3- [C,F,A,][C,A,C][C,B,C] | [F,A,C]6 | [F,A,F]3 [F,B,F]2 [F,A,F] | %9
 [F,A,F] [F,CF]2- [F,CF]3 | [C,B,]3 [D,A,]2 [C,C] | [F,CF] [F,A,F]2- [F,A,F]3 | %12
 [F,DF]3 [F,CF]2 [F,B,F] | [F,A,F] [F,CF]2- [F,CF]3 | [C,B,]3- [C,B,][C,A,][C,B,C] | [F,A,C]6 |] %16

